img/logo-uiboost.svg

<svg width="145" height="27" viewBox="0 0 145 27" fill="none" xmlns="http://www.w3.org/2000/svg">
<path fill-rule="evenodd" clip-rule="evenodd" d="M131.655 21.6484L135.718 25.7663L144.537 16.9427L135.825 8.22668L131.523 12.2081L136.599 16.9597L131.655 21.6484ZM132.999 12.2368L137.719 16.9597L132.978 21.4882L135.727 24.3098L143.091 16.9427L135.798 9.64633L132.999 12.2368Z" fill="#737380"/>
<path fill-rule="evenodd" clip-rule="evenodd" d="M124.508 21.4621L128.8 25.7663L137.824 16.9427L128.91 8.22668L124.508 12.2081L129.35 16.9427L124.508 21.4621ZM126.001 12.2371L130.831 16.9599L125.979 21.4885L128.809 24.3264L136.361 16.9427L128.883 9.63092L126.001 12.2371Z" fill="#737380"/>
<path d="M11.2955 23.6491C11.2955 24.3507 11.3657 25.2978 11.4358 25.6837H14.5929C14.5228 25.0873 14.4176 23.8946 14.4176 22.5616V7.64127H11.1201V18.9835C11.1201 21.5443 9.7871 23.2983 7.12108 23.2983C4.34982 23.2983 3.29745 21.2637 3.29745 18.9485V7.64127H0V19.4396C0 23.2632 2.38539 26.2099 6.31426 26.2099C8.27869 26.2099 10.3834 25.403 11.2955 23.6491Z" fill="#737380"/>
<path d="M21.2661 25.6837V7.64127H18.0038V25.6837H21.2661ZM17.2671 2.42616C17.2671 3.72409 18.3195 4.77646 19.6174 4.77646C20.9504 4.77646 22.0028 3.72409 22.0028 2.42616C22.0028 1.09315 20.9504 0.0407715 19.6174 0.0407715C18.3195 0.0407715 17.2671 1.09315 17.2671 2.42616Z" fill="#737380"/>
<path fill-rule="evenodd" clip-rule="evenodd" d="M33.4887 24.0578V26.0222H28.332V0.624878H33.5588V10.2366C34.2955 9.14912 36.2249 8.1669 38.6102 8.1669C43.6616 8.1669 46.7135 12.0256 46.7135 17.2524C46.7135 22.5844 43.2758 26.4081 38.3998 26.4081C36.0845 26.4081 34.2955 25.3908 33.4887 24.0578ZM37.4526 21.6373C39.5223 21.6373 41.3815 20.1991 41.3815 17.2875C41.3815 14.3408 39.5223 12.9728 37.4526 12.9728C35.3829 12.9728 33.4887 14.3408 33.4887 17.2875C33.4887 20.164 35.3829 21.6373 37.4526 21.6373ZM109.33 3.25612H114.108V8.35293H117.516V13.0279H114.108V19.5659C114.108 21.0071 114.881 21.3937 116.04 21.3937C116.602 21.3937 117.129 21.2883 117.445 21.218V25.6469C117.235 25.7524 116.356 26.139 114.67 26.139C111.052 26.139 108.839 23.9949 108.839 20.515V13.0279H105.747V8.35293H106.625C108.452 8.35293 109.33 7.12267 109.33 5.50575V3.25612ZM54.1586 17.0702C54.1586 19.9877 56.0907 21.4289 58.0931 21.4289C60.1307 21.4289 62.0277 20.0229 62.0277 17.0702C62.0277 14.1176 60.1307 12.7467 58.0931 12.7467C56.0907 12.7467 54.1586 14.1176 54.1586 17.0702ZM48.8188 17.0702C48.8188 11.6571 52.8939 7.82568 58.0931 7.82568C63.3275 7.82568 67.3674 11.6571 67.3674 17.0702C67.3674 22.4834 63.3275 26.3499 58.0931 26.3499C52.8939 26.3499 48.8188 22.4834 48.8188 17.0702ZM74.8212 17.0702C74.8212 19.9877 76.7533 21.4289 78.7557 21.4289C80.7933 21.4289 82.6903 20.0229 82.6903 17.0702C82.6903 14.1176 80.7933 12.7467 78.7557 12.7467C76.7533 12.7467 74.8212 14.1176 74.8212 17.0702ZM69.4814 17.0702C69.4814 11.6571 73.5565 7.82568 78.7557 7.82568C83.9901 7.82568 88.03 11.6571 88.03 17.0702C88.03 22.4834 83.9901 26.3499 78.7557 26.3499C73.5565 26.3499 69.4814 22.4834 69.4814 17.0702ZM89.6756 20.8665C89.8161 22.7997 91.5726 26.3499 97.0529 26.3499C101.725 26.3499 104.009 23.4325 104.009 20.4447C104.009 17.8787 102.252 15.6994 98.6337 14.9612L96.3152 14.5043C95.5423 14.3637 94.9451 13.9418 94.9451 13.2037C94.9451 12.2898 95.8233 11.6922 96.8421 11.6922C98.4581 11.6922 99.1958 12.6764 99.3363 13.8364L103.763 13.0279C103.587 10.9892 101.831 7.82568 96.7719 7.82568C92.8724 7.82568 90.062 10.4268 90.062 13.6255C90.062 16.086 91.5375 18.195 95.2613 19.0035L97.2637 19.4605C98.5635 19.7417 98.985 20.2689 98.985 20.9016C98.985 21.6749 98.3176 22.4131 96.9475 22.4131C95.1207 22.4131 94.2776 21.2531 94.2074 20.058L89.6756 20.8665Z" fill="#737380"/>
</svg>

<svg width="145" height="27" fill="none" xmlns="http://www.w3.org/2000/svg"><path fill-rule="evenodd" clip-rule="evenodd" d="m131.655 21.648 4.063 4.118 8.819-8.823-8.712-8.716-4.302 3.981 5.076 4.752-4.944 4.688Zm1.344-9.411 4.72 4.723-4.741 4.528 2.749 2.822 7.364-7.367-7.293-7.297-2.799 2.59Z" fill="#737380"/><path fill-rule="evenodd" clip-rule="evenodd" d="m124.508 21.462 4.292 4.304 9.024-8.823-8.914-8.716-4.402 3.981 4.842 4.735-4.842 4.52Zm1.493-9.225 4.83 4.723-4.852 4.528 2.83 2.838 7.552-7.383-7.478-7.312-2.882 2.606Z" fill="#737380"/><path d="M11.296 23.65c0 .7.07 1.648.14 2.034h3.157a28.41 28.41 0 0 1-.175-3.122V7.642H11.12v11.341c0 2.561-1.333 4.315-3.999 4.315-2.771 0-3.824-2.034-3.824-4.35V7.641H0V19.44c0 3.823 2.385 6.77 6.314 6.77 1.965 0 4.07-.807 4.982-2.56ZM21.266 25.684V7.64h-3.262v18.043h3.262ZM17.267 2.426a2.35 2.35 0 0 0 2.35 2.35c1.333 0 2.386-1.052 2.386-2.35A2.366 2.366 0 0 0 19.617.041c-1.297 0-2.35 1.052-2.35 2.385Z" fill="#737380"/><path fill-rule="evenodd" clip-rule="evenodd" d="M33.489 24.058v1.964h-5.157V.625h5.227v9.612c.736-1.088 2.666-2.07 5.051-2.07 5.052 0 8.104 3.859 8.104 9.085 0 5.332-3.438 9.156-8.314 9.156-2.316 0-4.105-1.017-4.911-2.35Zm3.964-2.42c2.07 0 3.928-1.439 3.928-4.35 0-2.947-1.859-4.315-3.928-4.315-2.07 0-3.964 1.368-3.964 4.315 0 2.876 1.894 4.35 3.964 4.35ZM109.33 3.255h4.778v5.097h3.408v4.675h-3.408v6.538c0 1.441.773 1.828 1.932 1.828a6.58 6.58 0 0 0 1.405-.176v4.429c-.21.105-1.089.492-2.775.492-3.618 0-5.831-2.144-5.831-5.624v-7.487h-3.092V8.353h.878c1.827 0 2.705-1.23 2.705-2.847v-2.25ZM54.159 17.07c0 2.918 1.932 4.359 3.934 4.359 2.038 0 3.935-1.406 3.935-4.359 0-2.952-1.897-4.323-3.935-4.323-2.002 0-3.934 1.37-3.934 4.323Zm-5.34 0c0-5.413 4.075-9.244 9.274-9.244 5.234 0 9.274 3.831 9.274 9.244s-4.04 9.28-9.274 9.28c-5.2 0-9.274-3.867-9.274-9.28Zm26.002 0c0 2.918 1.932 4.359 3.935 4.359 2.037 0 3.934-1.406 3.934-4.359 0-2.952-1.897-4.323-3.934-4.323-2.003 0-3.935 1.37-3.935 4.323Zm-5.34 0c0-5.413 4.076-9.244 9.275-9.244 5.234 0 9.274 3.831 9.274 9.244s-4.04 9.28-9.274 9.28c-5.2 0-9.275-3.867-9.275-9.28Zm20.195 3.796c.14 1.934 1.897 5.484 7.377 5.484 4.672 0 6.956-2.918 6.956-5.905 0-2.566-1.757-4.746-5.375-5.484l-2.319-.457c-.773-.14-1.37-.562-1.37-1.3 0-.914.878-1.512 1.897-1.512 1.616 0 2.354.984 2.494 2.144l4.427-.808c-.176-2.039-1.932-5.202-6.991-5.202-3.9 0-6.71 2.6-6.71 5.8 0 2.46 1.475 4.569 5.2 5.377l2.002.457c1.3.282 1.721.809 1.721 1.442 0 .773-.667 1.511-2.037 1.511-1.827 0-2.67-1.16-2.74-2.355l-4.532.808Z" fill="#737380"/></svg>
